X:1
T:Come fra verd'erbette
T:Madalena Casulana
T:Source : Secondo libro de madrigali a quattro voci---Venetia---G.Scotto---1570. Editor : André Vierendeels (23/08/17).
T:Come fra verd'erbette
T:©
T:©
T:©
T:©
T:©
C:Madalena Casulana
Z:©
%%score [ 1 2 3 4 ]
L:1/8
Q:1/4=120
M:2/2
K:F
V:1 treble nm="Soprano" snm="S"
V:2 treble nm="Alto" snm="A"
V:3 treble-8 nm="Tenor" snm="T"
V:4 bass nm="Bass" snm="B"
V:1
 F4 A2 c2 | B2 c2 d4 | c2 f2 e2 e2 | e3 f g2 G2 | A6 E2 | A2 G2 G4 | G2 G3 G G2 | c3 B A2 A2 | %8
w: Co- me fra|verd' er- bet-|te, vag' au- gel-|lin _ _ in|de- bil|fi- lo'ac- col-|to, des- ser ne|lacc' _ _ in|
 A4 A4 | z4 z2 d2 | d3 d g2 d2 | f8 | f4 d2 _e2 | d4 =B2 B2 | c4 A4 | c2 d2 B4 | A2 B4 G2- | %17
w: vol- to,|fin|che non s'erg' a|vo-|lo mai non|sen- te, co-|si men-|tr'io pre- sen-|te, da voi|
 G2 F2 f2 d2 | cB B3 A/G/ A2 | B8 | z4 z2 d2 | d2 d3 d B2 | G3 A Bc d2- | de f4 c2 | z2 c2 A4- | %25
w: _ don- na mi|tro- * * * * *|vo,|il|mio cer- cer non|pro- * * * *|* * * vo,|ma quand'|
 A4 f4 | e4 z2 f2- | f2 d4 d2 | ^c4 z4 | z2 e2 g4 | G4 A2 A2 | c4 c4 | c2 cA d2 c2- | c2 A4 B2 | %34
w: _ hai-|me, ma|_ quand' hai-|me,|da voi|fo di- par-|ta- ta,|svel- let mi sent' il|_ cor man-|
 G2 F2 f4 | d4 f2 ef | B2 c2 f2 d2- | d2 _e4 d2 | c4 d4 | B2 cd _e2 c2 | d4 D2 F2- | F2 F2 FGAB | %42
w: car la vi-|ta, svel- ler mi|sent' il cor man-|* car le|vi- ta,|svel- ler mi sent' il|cor man- car|_ la vi- * * *|
 c8 | c8 |] %44
w: |ta.|
V:2
 F4 F2 A2 | G2 A2 B4 | A2 c2 c3 c | c2 C2 C4- | C2 D2 C2 C2 | FEED/C/ D4 | E8 | z4 z2 F2- | %8
w: Co- me fra|verd' er- bet-|te, vag' au- gel-|lin in de-|* bil fil' ac-|col- * * * * *|to,|des-|
 FF F2 E2 A,2 | A4 A2 A2 | =B3 B B4 | c2 B3 A/G/ A2 | B2 F3 D G2- | G^F/E/ F2 G2 D2 | E4 F4 | %15
w: * ser ne lacc' in|vol- to, fin|che non s'erg'|a vo- * * *|lo mai non sen-|* * * * te, co-|si men-|
 A2 A2 G4 | F4 G2 B2- |"^b" B2 B,C DE F2 | G2 D2 F4 | F4 z2 F2 | F2 F3 F D2- | D2 B,4 G,2 | %22
w: tr'io pre- sen-|te, da voi|_ don- * * * *|na mi tro-|vo, il|mio car- cer non|_ pro- vo,|
 z2 B2 B2 B2- | BB A4 F2- | FE/D/ E2 F4 | z4 A4 | A8- | A4 G4 | A8 | E2 G4 E2- | E2 c4 C2 | G4 A4 | %32
w: il mio car-|* cer non pro-|* * * * vo,|ma|quand'|_ hai-|me,|da voi fo|_ di- par-|ti- ta,|
 A2 GF F2 E2 | F6 F2 | _E2 D2 C4 | F2 F2 FD A2 |"^b" G2 E2 D2 F2 | G2 c3 B B2- | BA/G/ A2 B4 | %39
w: svel- ler mi sent' il|cor man-|car la vi-|ta, svel- ler mi sent'|il cor man- car|la vi- * *|* * * * ta,|
 F2 FF G2 F2 |"^b" FEDC B,2 C2 | B,4 A,2 F2- | F2 ED E4 | F8 |] %44
w: svel- ler mi sent' il|cor _ _ _ _ man-|car la vi-||ta.|
V:3
 z8 | z4 f4 | f2 a2 g4- | g4 e4 | f4 e2 A2 | c2 c3 B/A/ =B2 | c4 z2 c2- | cc c2 f2 c2 | d4 A2 e2 | %9
w: |Vag'|au- gel- lin|_ in|de- bil fil'|ac- col- * * *|to, d'es-|* ser ne lacc' in|vol- to, fin|
 ^f3 f f2 f2 | g4 g2 G2 | A2 d2 c4 | d2 d4 c2 | A4 G2 g2 | g4 c4 | f2 f2 d4 | d2 d2 _e4 | d3 c B4 | %18
w: che non s'erg' a|vo- lo, non|s'erg' a vo-|lo mai non|sen- te, co-|si men-|tr'io pre- sen-|te, da voi|don- * *|
 G2 B2 c4 | B2 d2 d2 d2- | dd c2 f4 | f4 z4 | z2 g4 f2- | f2 d2 c2 A2 | G4 F2 F2 | f4 d4 | %26
w: na mi tro-|vo, il mio car-|* cer non pro-|vo,|il mio|_ car- cer non|pro- vo, ma|quand' hai-|
 ^c4 z2 d2 | f4 d4 | e2 e2 f4 | z2 e2 d2 g2- | g2 e2 f2 f2- | fe/d/ e2 f4 | c2 cc B2 G2 | %33
w: me, ma|quand' hai-|me da voi,|da voi fo|_ di- par- ti-|* * * * ta,|svel- ler mi sent' il|
 A2 c2 d4 | B2 B3 A/G/ A2 | B4 d2 cd | _e2 c2 B4 | z2 c2 g3 d | f4 B4 | d2 cB B2 A2 | B2 f2 f3 e | %41
w: cor man- car|la vi- * * *|ta, svel- ler mi|sent' il cor|man- car la|vi- ta,|svel- ler mi sent' il|cor man- car _|
 dc d2 c4 | g8 | a8 |] %44
w: _ _ _ la|vi-|ta.|
V:4
 z8 | z4 B,4 | F,2 F,2 C4- | C4 C,4 | F,4 A,4 | F,2 C2 G,4 | C,8 | z2 F,3 F, F,2 |"^b" D,2 D2 ^C4 | %9
w: |Vag'|au- gel- lin|_ in|de- bil|fil' ac- col-|to,|d'es- ser ne|lacc' in vol-|
 D2 D,2 D,3 D, | G,6 G,2 | F,8 | B,4 B,,2 C,2 | D,4 G,2 G,2 | C,4 F,4 | F,2 D,2 G,4 | D,4 z2 G,2 | %17
w: to, fin che non|d'erg' a|vo-|lo mai non|sen- te, co-|si men-|tr'io pre- sen-|te, da|
 B,6 B,,2 | _E,2 G,2 F,4 | B,,2 B,2 B,2 B,2- | B,B, A,2 B,4 | B,,4 z2 _E,2 | _E,2 E,3 E, B,,2 | %23
w: voi don-|na mi tro-|vo, il mio car-|* cer non pro-|vo, il|mio car- cer non|
 D,3 E, F,4 | C,4 z2 C2 | D6 D,2 | A,4 z2 D,2 | D4 B,4 | A,4 z2 A,2 | C4 =B,2 C2- | C2 C,2 F,4 | %31
w: pro- * *|vo, ma|quand' hai-|me, ma|quand' hai-|me da|voi so di-|* par- ti-|
 C,4 z4 | F,2 E,F, B,,2 C,2 | F,4 D,4 | _E,2 B,2 F,4 | B,,4 z4 | z8 | z8 | z8 | B,2 A,B, _E,2 F,2 | %40
w: ta,|svel- ler mi sent' il|cor man-|car la vi-|ta,||||svel- ler mi sent' il|
 B,,6 A,,2 | B,,4 F,4 | C,8 | F,8 |] %44
w: cor man-|car le|vi-|ta.|

